modules/defaultemblems/img/Gomaisasa.svg

<?xml version="1.0" encoding="UTF-8" standalone="no"?>
<!-- Created with Inkscape (http://www.inkscape.org/) -->
<!-- https://commons.wikimedia.org/wiki/File:Gomaisasa.svg -->
<svg height="400" viewBox="0 0 400 400" width="400" xmlns="http://www.w3.org/2000/svg">
  <path class="emblem-color" d="m404.42206 212.58401c-3.49326-18.83229-2.74246-38.70648 2.03509-53.87097 6.04003-18.67891 16.77608-35.53498 36.7993-39.63292l3.06451-.44614.858 184.59519h3.65813v-184.69994l3.71985.3888c23.22475 2.42746 39.78574 25.67009 43.42293 60.9422 1.74998 43.36792-22.13848 100.94861-49.25482 134.96912-20.91352-30.57442-35.73707-66.3883-44.30299-102.24534zm143.83223 54.89828c-15.22736-6.71761-25.90616-12.21136-32.56531-16.75333-6.09023-4.15395-18.72423-15.794-19.37785-17.85335-.21058-.66347.62222-5.21018 1.85065-10.1038 2.99285-11.92233 4.27065-21.27343 4.37597-32.02387l.08752-8.93285 6.39979 6.3522c20.87959 20.98557 34.40691 47.92413 43.08205 75.97857 1.10648 4.37253 1.24312 4.57592 3.20609 4.77214 2.04585.20451 2.0494.19954 1.61137-2.25806-7.76827-31.09698-24.38318-59.02097-46.15397-82.2761-5.82076-5.74257-8.96576-9.31648-8.96576-10.18849 0-2.64488-2.06136-11.40342-4.19824-17.838-3.28183-9.88225-9.25689-21.06132-13.82724-25.87012-.7588-.79838-1.22663-1.45161-1.03963-1.45161 1.57198 0 13.39031 4.38947 17.77478 6.60176 7.65024 3.86011 12.43507 7.18104 17.71651 12.29616 2.49786 2.41919 4.87391 4.60038 5.28013 4.84708 1.84409 1.11996 11.17583 12.77859 15.76092 19.69096 14.2872 21.53898 20.21808 41.31595 21.60631 72.04791.40329 8.92774-.51839 25.0443-1.53625 26.86312-.32126.57406-3.40146-.50945-11.08784-3.90032zm-206.71956 2.33618c-1.8297-5.91284-2.24452-31.88886-.71559-44.81099 1.85278-18.53077 8.33854-35.76347 17.68425-51.76819 3.09613-4.68339 8.33902-13.7451 14.98038-19.96213s14.33097-10.99026 20.62457-15.09667c5.66364-3.69538 17.79663-8.1898 20.9223-8.89201l1.93549-.43483-1.38275 1.5426c-2.25115 2.5114-7.11915 10.39082-8.8814 14.37558-2.61714 5.91782-5.34219 15.0344-6.85055 22.91835l-1.39767 7.30539-8.54323 8.47164c-22.12393 22.61352-38.06712 51.54477-45.86455 82.22676-.41942 2.09852-.38583 2.138 1.64603 1.93548 1.98854-.1982 2.12181-.39318 3.22811-4.72286 7.93775-28.7122 23.28846-54.63196 43.44441-76.40456l5.50338-5.43682.03466 10.27553c.0403 11.94611 1.05172 19.60701 4.2769 32.3952 2.76779 10.97456 3.071 10.03684-5.57131 17.22985-11.14324 9.27452-22.25702 15.77795-41.9001 24.51862-12.13284 5.3988-12.77815 5.6111-13.17333 4.33406zm266.72172-54.77144c-8.88018-1.56297-21.98419-5.05382-36.17456-9.63674l-13.27133-4.28611-3.13223-7.49589c-6.56575-15.71284-11.39487-23.9474-19.63825-33.48688l-4.56575-5.28363 3.39105 1.32653c28.08257 10.6984 51.78983 29.06752 71.50896 51.43104l2.24346 2.77328 1.44173-1.53465 1.44174-1.53466-4.32525-5.10959c-19.81642-23.27341-45.59243-40.02338-73.96415-50.93102-6.47109-2.15656-7.43089-2.70522-13.16262-7.52435-7.52006-6.32269-15.19572-11.3956-22.28436-14.72789l-5.31489-2.49847 5.48387-.16474c14.86007-.44639 26.83249 1.09575 38.44715 4.95232 14.67105 4.87142 33.06389 15.41411 44.92074 25.74839 11.08768 9.66387 22.2665 23.94155 28.56616 36.48493 2.72364 5.42309 6.77772 16.19237 7.7122 20.48672.44491 2.04457.40279 2.09528-1.69176 2.0367-1.18143-.03305-4.61578-.49442-7.63191-1.02529zm-324.72653-2.30173c.22137-1.15323 1.39633-4.9755 2.61103-8.49393 7.64591-22.14687 25.15827-44.1098 46.30905-58.07796 16.87578-11.14491 32.02593-17.43134 48.38709-20.07785 6.85028-1.10806 20.92375-1.44007 26.69271-.62971l3.46689.487-4.43463 1.78356c-8.8689 3.56698-19.0667 9.70683-26.59515 16.01231-3.40242 2.84969-5.69559 4.21759-8.36069 4.98719-30.73595 9.9989-57.35402 29.10177-78.57291 53.22396l-3.63093 4.49393 1.52381 1.25156 1.52381 1.25156 2.54717-3.02516c17.80126-21.18647 40.24725-37.0603 65.25994-48.59069 4.13851-1.75386 7.63693-3.07646 7.77427-2.93912.13735.13734-1.40955 2.10707-3.43754 4.37717-10.13801 11.34837-18.61486 25.56779-21.4574 35.99355-.71518 2.62312-1.42528 4.89427-1.57801 5.04699-.59679.59679-19.91934 6.8086-28.70263 9.22732-9.86768 2.71733-24.63923 5.79509-27.81324 5.79509-1.81313 0-1.8937-.11169-1.51264-2.09677z" transform="translate(-248.9016 1.28696)"/>
</svg>

<?xml version="1.0" encoding="UTF-8" standalone="no"?>
<!-- Created with Inkscape (http://www.inkscape.org/) -->
<!-- https://commons.wikimedia.org/wiki/File:Gomaisasa.svg -->
<svg
   xmlns:dc="http://purl.org/dc/elements/1.1/"
   xmlns:cc="http://web.resource.org/cc/"
   xmlns:rdf="http://www.w3.org/1999/02/22-rdf-syntax-ns#"
   xmlns:svg="http://www.w3.org/2000/svg"
   xmlns="http://www.w3.org/2000/svg"
   xmlns:sodipodi="http://sodipodi.sourceforge.net/DTD/sodipodi-0.dtd"
   xmlns:inkscape="http://www.inkscape.org/namespaces/inkscape"
   id="Gomaisasa, traced from a JPEG file by Misogi."
   sodipodi:version="0.32"
   inkscape:version="0.44"
   viewBox="0 0 400 400"
   width="400"
   height="400"
   sodipodi:docbase="/home/master"
   sodipodi:docname="Gomaisasa.svg"
   version="1.0">
  <metadata
     id="metadata7">
    <rdf:RDF>
      <cc:Work
         rdf:about="">
        <dc:format>image/svg+xml</dc:format>
        <dc:type
           rdf:resource="http://purl.org/dc/dcmitype/StillImage" />
      </cc:Work>
    </rdf:RDF>
  </metadata>
  <defs
     id="defs5" />
  <sodipodi:namedview
     inkscape:window-height="949"
     inkscape:window-width="1280"
     inkscape:pageshadow="2"
     inkscape:pageopacity="0.0"
     guidetolerance="10.0"
     gridtolerance="10.0"
     objecttolerance="10.0"
     borderopacity="1.0"
     bordercolor="#666666"
     pagecolor="#ffffff"
     id="base"
     inkscape:zoom="1"
     inkscape:cx="174.5"
     inkscape:cy="177.5"
     inkscape:window-x="0"
     inkscape:window-y="25"
     inkscape:current-layer="Gomaisasa, traced from a JPEG file by Misogi." />
  <g
     id="g2047"
     transform="translate(-248.9016,1.28696)">
    <path
       class="emblem-color"
       style="fill:black"
       d="M 404.42206,212.58401 C 400.9288,193.75172 401.6796,173.87753 406.45715,158.71304 C 412.49718,140.03413 423.23323,123.17806 443.25645,119.08012 L 446.32096,118.63398 L 447.17896,303.22917 L 450.83709,303.22917 L 450.83709,118.52923 L 454.55694,118.91803 C 477.78169,121.34549 494.34268,144.58812 497.97987,179.86023 C 499.72985,223.22815 475.84139,280.80884 448.72505,314.82935 C 427.81153,284.25493 412.98798,248.44105 404.42206,212.58401 z M 548.25429,267.48229 C 533.02693,260.76468 522.34813,255.27093 515.68898,250.72896 C 509.59875,246.57501 496.96475,234.93496 496.31113,232.87561 C 496.10055,232.21214 496.93335,227.66543 498.16178,222.77181 C 501.15463,210.84948 502.43243,201.49838 502.53775,190.74794 L 502.62527,181.81509 L 509.02506,188.16729 C 529.90465,209.15286 543.43197,236.09142 552.10711,264.14586 C 553.21359,268.51839 553.35023,268.72178 555.3132,268.918 C 557.35905,269.12251 557.3626,269.11754 556.92457,266.65994 C 549.1563,235.56296 532.54139,207.63897 510.7706,184.38384 C 504.94984,178.64127 501.80484,175.06736 501.80484,174.19535 C 501.80484,171.55047 499.74348,162.79193 497.6066,156.35735 C 494.32477,146.4751 488.34971,135.29603 483.77936,130.48723 C 483.02056,129.68885 482.55273,129.03562 482.73973,129.03562 C 484.31171,129.03562 496.13004,133.42509 500.51451,135.63738 C 508.16475,139.49749 512.94958,142.81842 518.23102,147.93354 C 520.72888,150.35273 523.10493,152.53392 523.51115,152.78062 C 525.35524,153.90058 534.68698,165.55921 539.27207,172.47158 C 553.55927,194.01056 559.49015,213.78753 560.87838,244.51949 C 561.28167,253.44723 560.35999,269.56379 559.34213,271.38261 C 559.02087,271.95667 555.94067,270.87316 548.25429,267.48229 z M 341.53473,269.81847 C 339.70503,263.90563 339.29021,237.92961 340.81914,225.00748 C 342.67192,206.47671 349.15768,189.24401 358.50339,173.23929 C 361.59952,168.5559 366.84241,159.49419 373.48377,153.27716 C 380.12513,147.06013 387.81474,142.2869 394.10834,138.18049 C 399.77198,134.48511 411.90497,129.99069 415.03064,129.28848 L 416.96613,128.85365 L 415.58338,130.39625 C 413.33223,132.90765 408.46423,140.78707 406.70198,144.77183 C 404.08484,150.68965 401.35979,159.80623 399.85143,167.69018 L 398.45376,174.99557 L 389.91053,183.46721 C 367.7866,206.08073 351.84341,235.01198 344.04598,265.69397 C 343.62656,267.79249 343.66015,267.83197 345.69201,267.62945 C 347.68055,267.43125 347.81382,267.23627 348.92012,262.90659 C 356.85787,234.19439 372.20858,208.27463 392.36453,186.50203 L 397.86791,181.06521 L 397.90257,191.34074 C 397.94287,203.28685 398.95429,210.94775 402.17947,223.73594 C 404.94726,234.7105 405.25047,233.77278 396.60816,240.96579 C 385.46492,250.24031 374.35114,256.74374 354.70806,265.48441 C 342.57522,270.88321 341.92991,271.09551 341.53473,269.81847 z M 608.25645,215.04703 C 599.37627,213.48406 586.27226,209.99321 572.08189,205.41029 L 558.81056,201.12418 L 555.67833,193.62829 C 549.11258,177.91545 544.28346,169.68089 536.04008,160.14141 L 531.47433,154.85778 L 534.86538,156.18431 C 562.94795,166.88271 586.65521,185.25183 606.37434,207.61535 L 608.6178,210.38863 L 610.05953,208.85398 L 611.50127,207.31932 L 607.17602,202.20973 C 587.3596,178.93632 561.58359,162.18635 533.21187,151.27871 C 526.74078,149.12215 525.78098,148.57349 520.04925,143.75436 C 512.52919,137.43167 504.85353,132.35876 497.76489,129.02647 L 492.45,126.528 L 497.93387,126.36326 C 512.79394,125.91687 524.76636,127.45901 536.38102,131.31558 C 551.05207,136.187 569.44491,146.72969 581.30176,157.06397 C 592.38944,166.72784 603.56826,181.00552 609.86792,193.5489 C 612.59156,198.97199 616.64564,209.74127 617.58012,214.03562 C 618.02503,216.08019 617.98291,216.1309 615.88836,216.07232 C 614.70693,216.03927 611.27258,215.5779 608.25645,215.04703 z M 283.52992,212.7453 C 283.75129,211.59207 284.92625,207.7698 286.14095,204.25137 C 293.78686,182.1045 311.29922,160.14157 332.45,146.17341 C 349.32578,135.0285 364.47593,128.74207 380.83709,126.09556 C 387.68737,124.9875 401.76084,124.65549 407.5298,125.46585 L 410.99669,125.95285 L 406.56206,127.73641 C 397.69316,131.30339 387.49536,137.44324 379.96691,143.74872 C 376.56449,146.59841 374.27132,147.96631 371.60622,148.73591 C 340.87027,158.73481 314.2522,177.83768 293.03331,201.95987 L 289.40238,206.4538 L 290.92619,207.70536 L 292.45,208.95692 L 294.99717,205.93176 C 312.79843,184.74529 335.24442,168.87146 360.25711,157.34107 C 364.39562,155.58721 367.89404,154.26461 368.03138,154.40195 C 368.16873,154.53929 366.62183,156.50902 364.59384,158.77912 C 354.45583,170.12749 345.97898,184.34691 343.13644,194.77267 C 342.42126,197.39579 341.71116,199.66694 341.55843,199.81966 C 340.96164,200.41645 321.63909,206.62826 312.8558,209.04698 C 302.98812,211.76431 288.21657,214.84207 285.04256,214.84207 C 283.22943,214.84207 283.14886,214.73038 283.52992,212.7453 z "
       id="path2049"
       sodipodi:nodetypes="csccccccssscssscccssssssssssssssccsssscccscccssscccssscccccccccccccsscccsssssccssscccsscccccsssssssc" />
  </g>
</svg>
